Obsidian-SemiLight/actions/16s/view-multiple-objects.svg

<svg viewBox="0 0 16 16" xmlns="http://www.w3.org/2000/svg"><path d="m2 3v5h8v-5zm9 0v5h3v-5zm-8 1h6v3h-6zm-1 5v5h12v-5zm1 1h10v3h-10z" fill="#4d4d4d"/></svg>

<svg xmlns="http://www.w3.org/2000/svg" viewBox="0 0 16 16">
  <defs id="defs3051">
    <style type="text/css" id="current-color-scheme">
      .ColorScheme-Text {
        color:#4d4d4d;
      }
      </style>
  </defs>
 <path style="fill:currentColor;fill-opacity:1;stroke:none" 
       d="M 2 3 L 2 8 L 10 8 L 10 3 L 2 3 z M 11 3 L 11 8 L 14 8 L 14 3 L 11 3 z M 3 4 L 9 4 L 9 7 L 3 7 L 3 4 z M 2 9 L 2 14 L 14 14 L 14 9 L 2 9 z M 3 10 L 13 10 L 13 13 L 3 13 L 3 10 z "
     class="ColorScheme-Text"
     />
</svg>
